X:0640
T:Jenny Sutton.
M:C|
L:1/8
Q:1/2=104
I: :: ||
Z:Jack Campin * www.campin.me.uk * 2009
K:G
G/G/G GB dBdB|G/G/G GB cAFA|G/G/G GB dBdB|edcA  B2G2:|
gGgG     fGfG|efge     dBAG|gGgG     fGfG|efge Te2d2 |
gBEg     fADf|eGce     dBAG|G/G/G GB dBec|BgAf  g2G2|]

